X: 24433
T: Luachrach
R: polka
M: 2/4
K: Gmajor
Bc/e/ dA|dB G2|AB cA|Bc/d/ G2|Bc/e/ dA|dB G2|dB Ad|G2 G2:|
ge/g/ fd|eB d2|GB/e/ dB|gB d2|ge/g/ fd|eB d2|GB/e/ d F|G2 G2:|

